X: 5
T: Comb Your Hair And Curl It
R: slip jig
M: 9/8
L: 1/8
K: Edor
BEE FGA|B2 dc d2|BEE FGA|B/d/B AF GE|BEE FGA|B2 dc dA|BEE FGA|B/d/B AF GE||gee deg|fdd cde|gee ded|B/c/d AF GE|gee deg|fdd cde|ge df ed|B/c/d AF GE||


Tune 1030	Setting 14253

